src/config/img/Home.svg

<svg width="133" height="133" viewBox="0 0 133 133" fill="none" xmlns="http://www.w3.org/2000/svg">
<g clip-path="url(#clip0)">
<path d="M66.6012 35.1939L19.6946 73.8635C19.6946 73.918 19.6809 73.9983 19.6535 74.1078C19.6266 74.2164 19.6123 74.2952 19.6123 74.3512V113.508C19.6123 114.922 20.1292 116.147 21.1627 117.179C22.1959 118.211 23.4194 118.731 24.8335 118.731H56.1583V87.4043H77.0444V118.732H108.369C109.783 118.732 111.008 118.214 112.04 117.179C113.073 116.148 113.592 114.922 113.592 113.508V74.3512C113.592 74.1341 113.562 73.9701 113.509 73.8635L66.6012 35.1939Z" fill="#1DA1AF"/>
<path d="M131.455 65.0526L113.591 50.2054V16.9213C113.591 16.1604 113.346 15.5346 112.855 15.0449C112.368 14.5557 111.743 14.3111 110.98 14.3111H95.3173C94.5556 14.3111 93.9301 14.5557 93.4401 15.0449C92.9512 15.5346 92.7069 16.1607 92.7069 16.9213V32.8289L72.8022 16.1864C71.0638 14.7723 68.9969 14.0654 66.6036 14.0654C64.2106 14.0654 62.1439 14.7723 60.4038 16.1864L1.74732 65.0526C1.20357 65.4869 0.905555 66.0716 0.850123 66.8059C0.794977 67.5397 0.984988 68.1805 1.42073 68.724L6.47847 74.761C6.91421 75.2501 7.48453 75.5493 8.19171 75.6587C8.84461 75.7136 9.49751 75.5227 10.1504 75.0878L66.6019 28.0157L123.054 75.0876C123.49 75.467 124.06 75.6565 124.767 75.6565H125.012C125.718 75.549 126.288 75.2479 126.726 74.7598L131.784 68.7237C132.219 68.1791 132.409 67.5394 132.353 66.8047C132.297 66.0724 131.998 65.4878 131.455 65.0526Z" fill="#1DA1AF"/>
</g>
<defs>
<clipPath id="clip0">
<rect width="131.522" height="131.522" fill="white" transform="translate(0.84082 0.637695)"/>
</clipPath>
</defs>
</svg>

<svg width="133" height="133" fill="none" xmlns="http://www.w3.org/2000/svg"><g clip-path="url(#clip0)" fill="#1DA1AF"><path d="M66.601 35.194l-46.906 38.67c0 .054-.014.134-.041.244a1.115 1.115 0 0 0-.042.243v39.157c0 1.414.517 2.639 1.55 3.671 1.034 1.032 2.257 1.552 3.672 1.552h31.324V87.404h20.886v31.328h31.325c1.414 0 2.639-.518 3.671-1.553 1.033-1.031 1.552-2.257 1.552-3.671V74.351c0-.217-.03-.38-.083-.487l-46.908-38.67z"/><path d="M131.455 65.053l-17.864-14.848V16.921c0-.76-.245-1.386-.736-1.876-.487-.49-1.112-.734-1.875-.734H95.317c-.761 0-1.387.245-1.877.734-.489.49-.733 1.116-.733 1.876V32.83L72.802 16.186c-1.738-1.414-3.805-2.12-6.198-2.12-2.393 0-4.46.706-6.2 2.12L1.747 65.053c-.543.434-.841 1.019-.897 1.753-.055.734.135 1.374.57 1.918l5.058 6.037c.436.49 1.007.788 1.714.898.653.055 1.306-.136 1.958-.571l56.452-47.072 56.452 47.072c.436.379 1.006.569 1.713.569h.245c.706-.108 1.276-.41 1.714-.897l5.058-6.036c.435-.545.625-1.185.569-1.92-.056-.732-.355-1.316-.898-1.751z"/></g><defs><clipPath id="clip0"><path fill="#fff" transform="translate(.84 .638)" d="M0 0h131.522v131.522H0z"/></clipPath></defs></svg>
